X:1

T:Why Should I Not Like My Love?

M:9/8

L:1/8

S:Aird, vol. II (1785)

K:A Minor

E | ABA c2A cde | G2G Gge dBG | ABA c2A cde | ede gdB A2E |

ABA c2A cde | GAG Gge dBG | ABA c2A cde | ede gdB G2 || g |

ede ede g2g | dBd dBd f2d | eag edB deg | ede gdB A2 ||

                       

WHY SHOULD I NOT LOVE MY LOVE?  See “Why Should I Not Like My Love.”

                       

WHY SHOULD NOT POOR FOLK? (Cad fath nach ndeinfadh na boicht?). AKA and see "Jackson's maid at the fair [1]." Irish, Air (6/8 time). C Major. Standard tuning. ABC. O'Sullivan (1983) points out the tune, from Bunting's 1840 collection, is really an extended version of "A ghaoith on nDeas," printed in Bunting's 1809 volume A General Collection of the Ancient Music of Ireland (pg. 37). A version of the tune appears as "Jackson's maid at the fair" in O'Farrell's Pocket Companion for the Irish or Union Pipes (Vol. 1, pg. 771), c. 1811. Source for notated version: the Irish collector Edward Bunting noted the melody in 1792 from "the performance of an old man well known by the 'soubriquet' of 'Poor Folk,' who formerly perambulated the northern counties, playing on a tin fiddle." O'Sullivan/Bunting, 1983; No. 50, pgs. 79-80.

           

WHY SHOULD WE PART SO SOON. Irish, Air (3/4 time). A Major. Standard tuning. AABB. O’Farrell (Pocket Companion, vol. 1); c. 1805; pg. 73.

